!!!COM: des Prez, Josquin
!!!CDT: ~1450-1521/08/27
!!!OTL@@LAT: Gaude virgo
!!!AGN: Motet
!!!SCT: NJE 24.2
!!!SCA: New Josquin Edition 24.2
!!!ONB: Ed. Jesse Rodin
!!!voices: 4
**kern	**text	**kern	**text	**kern	**text	**kern	**text
*staff4	*	*staff3	*	*staff2	*	*staff1	*
*Ivox	*	*Ivox	*	*Ivox	*	*Ivox	*
*I"Bassus	*	*I"Tenor	*	*I"Altus	*	*I"Superius	*
*I'B	*	*I'T	*	*I'A	*	*I'S	*
*clefF4	*	*clefGv2	*	*clefG2	*	*clefG2	*
*k[]	*	*k[]	*	*k[]	*	*k[b-]	*
*M2/1	*	*M2/1	*	*M2/1	*	*M2/1	*
*met(C|)	*	*met(C|)	*	*met(C|)	*	*met(C|)	*
=1-	=1-	=1-	=1-	=1-	=1-	=1-	=1-
!	!	!	!	!	!	!LO:TX:Z=9:t=Edition based on Brussels 9126 (including conclusion; cf. NJE vol. 24)	!
0r	.	0r	.	0r	.	0d	Gau-
=2	=2	=2	=2	=2	=2	=2	=2
0r	.	0r	.	0r	.	1d	-de
.	.	.	.	.	.	1d	vir-
=3	=3	=3	=3	=3	=3	=3	=3
0r	.	0r	.	0d	Gau-	2.f/	-go
.	.	.	.	.	.	4g/	.
.	.	.	.	.	.	2a/	.
.	.	.	.	.	.	2b-\	ma-
=4	=4	=4	=4	=4	=4	=4	=4
0r	.	0r	.	1d	-de	2a/	-ter
.	.	.	.	.	.	1b-	Chri-
.	.	.	.	1d	vir-	.	.
.	.	.	.	.	.	4a/	.
.	.	.	.	.	.	4g/	.
=5	=5	=5	=5	=5	=5	=5	=5
0r	.	0r	.	2.f/	-go	1a	-sti,
.	.	.	.	4g/	.	.	.
.	.	.	.	2a/	.	1d	Que
.	.	.	.	2b-\	ma-	.	.
=6	=6	=6	=6	=6	=6	=6	=6
0r	.	0r	.	2a/	-ter	1d	per
.	.	.	.	1b-i	Chri-	.	.
.	.	.	.	.	.	1d	au-
.	.	.	.	4a/	.	.	.
.	.	.	.	4g/	.	.	.
=7	=7	=7	=7	=7	=7	=7	=7
0r	.	0r	.	1a	-sti,	2.f/	-tem
.	.	.	.	.	.	4g/	.
.	.	.	.	1d	Que	2a/	.
.	.	.	.	.	.	2b-\	con-
=8	=8	=8	=8	=8	=8	=8	=8
0r	.	0r	.	1d	per	2a/	-ce-
.	.	.	.	.	.	1b-	-pi-
.	.	.	.	1d	au-	.	.
.	.	.	.	.	.	4a/	.
.	.	.	.	.	.	4g/	.
=9	=9	=9	=9	=9	=9	=9	=9
0r	.	0r	.	2.f/	-tem	1a	-sti,
.	.	.	.	4g/	.	.	.
.	.	.	.	2a/	.	2r	.
.	.	.	.	2b-i\	con-	2dd\	con-
=10	=10	=10	=10	=10	=10	=10	=10
0r	.	0r	.	2a/	-ce-	2cc\	-ce-
.	.	.	.	1b-i	-pi-	1dd	-pi-
.	.	.	.	4a/	.	4cc\	.
.	.	.	.	4g/	.	4b-\	.
=11	=11	=11	=11	=11	=11	=11	=11
0r	.	0r	.	0a	-sti,	1cc	-sti,
.	.	.	.	.	.	1r	.
=12	=12	=12	=12	=12	=12	=12	=12
0r	.	0r	.	1r	.	1a	Ga-
.	.	.	.	1a	Ga-	1a	-bri-
=13	=13	=13	=13	=13	=13	=13	=13
0r	.	0r	.	1a	-bri-	2.cc\	-e-
.	.	.	.	.	.	4dd\	.
.	.	.	.	[1cc	-e-	4ee\	.
.	.	.	.	.	.	4ff\	.
.	.	.	.	.	.	[2ee\	.
=14	=14	=14	=14	=14	=14	=14	=14
0r	.	0r	.	2cc\]	.	4ee\]	.
.	.	.	.	.	.	4cc\	.
.	.	.	.	2b\	.	4dd\	.
.	.	.	.	.	.	4ee\	.
.	.	.	.	2a/	.	2ff\	.
.	.	.	.	2g/	.	[2ee\	.
=15	=15	=15	=15	=15	=15	=15	=15
0r	.	0r	.	2.f/	.	4ee\]	.
.	.	.	.	.	.	4cc\	.
.	.	.	.	.	.	4dd\	.
.	.	.	.	4e/	.	4ee\	.
.	.	.	.	2d/	.	2ff\	.
.	.	.	.	2c/	-le	[2ee\	-le
=16	=16	=16	=16	=16	=16	=16	=16
0r	.	0r	.	1d	nun-	4ee\]	.
.	.	.	.	.	.	4dd\	.
.	.	.	.	.	.	1dd	nun-
.	.	.	.	1e	-ti-	.	.
.	.	.	.	.	.	2cc#i\	-ti-
=17	=17	=17	=17	=17	=17	=17	=17
0r	.	1r	.	[0d	-o.	[0dd	-o.
.	.	1D	Gau-	.	.	.	.
=18	=18	=18	=18	=18	=18	=18	=18
0r	.	1F	de,	0d]	.	0dd]	.
.	.	1G	qui-	.	.	.	.
=19	=19	=19	=19	=19	=19	=19	=19
1r	.	2A/	-a	0r	.	0r	.
.	.	2D/	.	.	.	.	.
1D	Gau-	2.d\	de-	.	.	.	.
.	.	4c\	.	.	.	.	.
=20	=20	=20	=20	=20	=20	=20	=20
1F	de,	2A/	.	0r	.	0r	.
.	.	2c\	-o	.	.	.	.
1G	qui-	1B-i	ple-	.	.	.	.
=21	=21	=21	=21	=21	=21	=21	=21
2A\	-a	1A	-na,	0r	.	0r	.
2D\	.	.	.	.	.	.	.
2.d\	de-	2r	.	.	.	.	.
.	.	2D/	Pe-	.	.	.	.
4c\	.	.	.	.	.	.	.
=22	=22	=22	=22	=22	=22	=22	=22
2A\	.	1F	-pe-	0r	.	0r	.
2c\	-o	.	.	.	.	.	.
1B-i	ple-	1G	-ris-	.	.	.	.
=23	=23	=23	=23	=23	=23	=23	=23
1A	-na,	2A/	-ti	0r	.	0r	.
.	.	2D/	.	.	.	.	.
2r	.	2.d\	si-	.	.	.	.
2D\	Pe-	.	.	.	.	.	.
.	.	4c\	.	.	.	.	.
=24	=24	=24	=24	=24	=24	=24	=24
1F	-pe-	2A/	.	0r	.	0r	.
.	.	2c\	-ne	.	.	.	.
1G	-ris-	1B-i	pe-	.	.	.	.
=25	=25	=25	=25	=25	=25	=25	=25
2A\	-ti	2A/	-na,	0r	.	0r	.
2D\	.	2F/	pe-	.	.	.	.
2.d\	si-	2G/	.	.	.	.	.
.	.	4D/	.	.	.	.	.
4c\	.	4E/	.	.	.	.	.
=26	=26	=26	=26	=26	=26	=26	=26
2A\	.	4F/	.	0r	.	0r	.
.	.	4G/	.	.	.	.	.
2c\	-ne	1A	.	.	.	.	.
1B-i	pe-	.	.	.	.	.	.
.	.	2G/	.	.	.	.	.
=27	=27	=27	=27	=27	=27	=27	=27
1A	-na,	1A	-na,	0r	.	0r	.
2r	.	1c	Cum	.	.	.	.
[2F\	Cum	.	.	.	.	.	.
=28	=28	=28	=28	=28	=28	=28	=28
2F\]	.	1d	pu-	0r	.	0r	.
1G	pu-	.	.	.	.	.	.
.	.	1e	-do-	.	.	.	.
[2A\	-do-	.	.	.	.	.	.
=29	=29	=29	=29	=29	=29	=29	=29
4A\]	.	4A/	.	0r	.	0r	.
4G\	.	4B\	.	.	.	.	.
4A\	.	4c\	.	.	.	.	.
4B-i\	.	4d\	.	.	.	.	.
2G\	-ris-	4e\	.	.	.	.	.
.	.	4d\	.	.	.	.	.
[2A\	li-	2f\	-ris-	.	.	.	.
=30	=30	=30	=30	=30	=30	=30	=30
4A\]	.	4A/	li-	0r	.	0r	.
4G\	.	4B\	.	.	.	.	.
4A\	.	4c\	.	.	.	.	.
4B-i\	.	4d\	.	.	.	.	.
2G\	.	4e\	.	.	.	.	.
.	.	4d\	.	.	.	.	.
2A\	.	[2f\	.	.	.	.	.
=31	=31	=31	=31	=31	=31	=31	=31
2F\	.	4f\]	.	0r	.	0r	.
.	.	4e\	.	.	.	.	.
2G\	.	1d	.	.	.	.	.
1E	-li-	.	.	.	.	.	.
.	.	2c#i\	-li-	.	.	.	.
=32	=32	=32	=32	=32	=32	=32	=32
[0D	-o.	[0d	-o.	0r	.	1r	.
.	.	.	.	.	.	1dd	Gau-
=33	=33	=33	=33	=33	=33	=33	=33
0D]	.	0d]	.	1r	.	1ff	-de,
.	.	.	.	1a	Gau-	1ff	qui-
=34	=34	=34	=34	=34	=34	=34	=34
1r	.	1.c	Gau-	1cc	-de,	1ee	-a
1A	Gau-	.	.	1cc	qui-	1cc	tu-
.	.	4B\	.	.	.	.	.
.	.	4A/	.	.	.	.	.
=35	=35	=35	=35	=35	=35	=35	=35
1B-	-de,	0G	-de,	1b-i	-a	1dd	-i
1B-i	qui-	.	.	1g	tu-	1dd	na-
=36	=36	=36	=36	=36	=36	=36	=36
1A	-a	2r	.	1a	-i	1cc	-ti,
.	.	2c\	qui-	.	.	.	.
1F	tu-	2d\	-a	1a	na-	1a	Quem
.	.	[2f\	tu-	.	.	.	.
=37	=37	=37	=37	=37	=37	=37	=37
1G	-i	2f\]	.	0g	-ti,	1b-	do-
.	.	4e\	.	.	.	.	.
.	.	4d\	.	.	.	.	.
1G	na-	2e\	.	.	.	1b-	-le-
.	.	[2d\	.	.	.	.	.
=38	=38	=38	=38	=38	=38	=38	=38
0F	-ti,	2d\]	.	1r	.	1a	-bas
.	.	4c\	.	.	.	.	.
.	.	4B-i\	.	.	.	.	.
.	.	2A/	.	1a	Quem	1f	mor-
.	.	2d\	-i	.	.	.	.
=39	=39	=39	=39	=39	=39	=39	=39
0r	.	0G	na-	1b-	do-	1g	-tem
.	.	.	.	1b-i	-le-	1g	pa-
=40	=40	=40	=40	=40	=40	=40	=40
1r	.	2d\	-ti,	1a	-bas	2f/	-ti,
.	.	2A/	Quem	.	.	2cc\	mor-
1D	Quem	2B-i\	do-	1f	mor-	2dd\	-tem
.	.	[2d\	-le-	.	.	[2ff\	pa-
=41	=41	=41	=41	=41	=41	=41	=41
1E	do-	2d\]	.	1g	-tem	2ff\]	.
.	.	4c\	.	.	.	4ee\	.
.	.	4B-i\	.	.	.	4dd\	.
1E	-le-	2c\	-bas	1g	pa-	1ee	.
.	.	2G/	mor-	.	.	.	.
=42	=42	=42	=42	=42	=42	=42	=42
1D	-bas	1A	-tem	3%2fV	.	2ff\	-ti,
.	.	.	.	.	.	2dd\	mor-
.	.	.	.	3d/	.	.	.
1A	mor-	1A	pa-	3c/	.	2ff\	-tem
.	.	.	.	3e/	.	.	.
.	.	.	.	.	.	[2ee\	pa-
.	.	.	.	3f/Z	.	.	.
=43	=43	=43	=43	=43	=43	=43	=43
1B-i	-tem	1G	-ti,	3%2gV	.	2ee\]	.
.	.	.	.	.	.	1dd	.
.	.	.	.	3e/	.	.	.
1B-i	pa-	2r	.	3d/	.	.	.
.	.	.	.	3f/	.	.	.
.	.	2d\	mor-	.	.	4cc\	.
.	.	.	.	3g/Z	.	.	.
.	.	.	.	.	.	4b-\	.
=44	=44	=44	=44	=44	=44	=44	=44
1A	-ti,	1e	-tem	3%2aV	.	2cc\	-ti,
.	.	.	.	.	.	2a/	mor-
.	.	.	.	3%2e	.	.	.
2r	.	1e	pa-	.	.	2cc\	-tem
.	.	.	.	3%2gZ	.	.	.
2E\	mor-	.	.	.	.	[2bni\	pa-
=45	=45	=45	=45	=45	=45	=45	=45
1F	-tem	1d	-ti,	3%2fV	.	2b\]	.
.	.	.	.	.	.	2a/	.
.	.	.	.	3%2c	.	.	.
1F	pa-	2r	.	.	.	2.cc\	.
.	.	.	.	3%2dZ	.	.	.
.	.	2A/	mor-	.	.	.	.
.	.	.	.	.	.	4bni\	.
=46	=46	=46	=46	=46	=46	=46	=46
0E	-ti,	1B	-tem	0e	-ti,	2g/	.
.	.	.	.	.	.	1a	.
.	.	1B	pa-	.	.	.	.
.	.	.	.	.	.	2g#i/	.
=47	=47	=47	=47	=47	=47	=47	=47
2r	.	0A	-ti	1.c	Ful-	0a	-ti,
1A	Ful-	.	.	.	.	.	.
4G\	.	.	.	4B/	.	.	.
4F\	.	.	.	4A/	.	.	.
=48	=48	=48	=48	=48	=48	=48	=48
2G\	.	0d	.	2B/	.	2r	.
2F\	.	.	.	2A/	-get	1a	Ful-
1D	-get	.	.	2r	.	.	.
.	.	.	.	2a/	re-	4g/	.
.	.	.	.	.	.	4f/	.
=49	=49	=49	=49	=49	=49	=49	=49
0r	.	0r	.	2b-i\	-sur-	2g/	.
.	.	.	.	1a	-rec-	2f/	.
.	.	.	.	.	.	2d/	-get
.	.	.	.	4g/	.	2a/	re-
.	.	.	.	4f/	.	.	.
=50	=50	=50	=50	=50	=50	=50	=50
0r	.	0r	.	2g/	.	2b-\	-sur-
.	.	.	.	2f/	-ti-	1a	-rec-
.	.	.	.	2d/	-o,	.	.
.	.	.	.	2a/	re-	4g/	.
.	.	.	.	.	.	4f/	.
=51	=51	=51	=51	=51	=51	=51	=51
0r	.	0r	.	2b-i\	-sur-	2g/	.
.	.	.	.	1a	-rec-	2f/	-ti-
.	.	.	.	.	.	2d/	-o,
.	.	.	.	4g/	.	2dd\	re-
.	.	.	.	4f/	.	.	.
=52	=52	=52	=52	=52	=52	=52	=52
0r	.	0r	.	2g/	.	4ee\	-sur-
.	.	.	.	.	.	4dd\	.
.	.	.	.	2f/	.	2.ff\	-rec-
.	.	.	.	2.d/	.	.	.
.	.	.	.	.	.	4ee\	.
.	.	.	.	.	.	[2dd\	.
.	.	.	.	4f/	.	.	.
=53	=53	=53	=53	=53	=53	=53	=53
1r	.	2r	.	1e	-ti-	2dd\]	.
.	.	1A	Gau-	.	.	2cc#i\	-ti-
1D	Gau-	.	.	1d	-o.	1dd	-o.
.	.	[2B\	-de,	.	.	.	.
=54	=54	=54	=54	=54	=54	=54	=54
1E	-de,	2B\]	.	0r	.	0r	.
.	.	1c	Chri-	.	.	.	.
1F	Chri-	.	.	.	.	.	.
.	.	[2d\	-sto	.	.	.	.
=55	=55	=55	=55	=55	=55	=55	=55
1G	-sto	2d\]	.	0r	.	0r	.
.	.	1e	a-	.	.	.	.
1A	a-	.	.	.	.	.	.
.	.	[2f\	-scen-	.	.	.	.
=56	=56	=56	=56	=56	=56	=56	=56
1B	-scen-	4f\]	.	0r	.	0r	.
.	.	4e\	.	.	.	.	.
.	.	4f\	.	.	.	.	.
.	.	4d\	.	.	.	.	.
1c	-den-	1e	-den-	.	.	.	.
=57	=57	=57	=57	=57	=57	=57	=57
0d	-te,	1d	-te,	1r	.	2r	.
.	.	.	.	.	.	1a	Et
.	.	1r	.	1d	Et	.	.
.	.	.	.	.	.	[2bni\	in
=58	=58	=58	=58	=58	=58	=58	=58
0r	.	0r	.	1e	in	2b\]	.
.	.	.	.	.	.	1cc	ce-
.	.	.	.	1f	ce-	.	.
.	.	.	.	.	.	[2dd\	-lum
=59	=59	=59	=59	=59	=59	=59	=59
0r	.	0r	.	1g	-lum	2dd\]	.
.	.	.	.	.	.	1ee	te
.	.	.	.	1a	te	.	.
.	.	.	.	.	.	[2ff\	vi-
=60	=60	=60	=60	=60	=60	=60	=60
0r	.	0r	.	1b	vi-	4ff\]	.
.	.	.	.	.	.	4ee\	.
.	.	.	.	.	.	4ff\	.
.	.	.	.	.	.	4dd\	.
.	.	.	.	1cc	-den-	2ee\	-den-
.	.	.	.	.	.	2a/	.
=61	=61	=61	=61	=61	=61	=61	=61
0r	.	0r	.	2dd\	-te,	2bni\	-te,
.	.	.	.	2a/	te	2cc\	te
.	.	.	.	2b\	vi-	2dd\	vi-
.	.	.	.	[2cc\	-den-	[2ee\	-den-
=62	=62	=62	=62	=62	=62	=62	=62
0r	.	1r	.	4cc\]	.	2ee\]	.
.	.	.	.	4b\	.	.	.
.	.	.	.	1a	.	2cc\	.
.	.	2r	.	.	.	1bni	.
.	.	[2e\	Mo-	2g#i/	.	.	.
=63	=63	=63	=63	=63	=63	=63	=63
1A	Mo-	2e\]	.	1a	-te,	1a	-te,
.	.	1f	-tu	.	.	.	.
1B-i	-tu	.	.	1d	.	1r	.
.	.	[2d\	fer-	.	.	.	.
=64	=64	=64	=64	=64	=64	=64	=64
1G	fer-	2d\]	.	1b	Mo-	1r	.
.	.	1e	-tur	.	.	.	.
1A	-tur	.	.	1cc	-tu	1ee	Mo-
.	.	[2c\	pro-	.	.	.	.
=65	=65	=65	=65	=65	=65	=65	=65
1F	pro-	2c\]	.	1a	fer-	1ff	-tu
.	.	1d	-pri-	.	.	.	.
1G	-pri-	.	.	1b	-tur	1dd	fer-
.	.	[2B\	-o,	.	.	.	.
=66	=66	=66	=66	=66	=66	=66	=66
1E	-o,	2B\]	.	1g	pro-	1ee	-tur
.	.	2.c\	pro-	.	.	.	.
1A	pro-	.	.	1a	-pri-	1cc	pro-
.	.	4A/	.	.	.	.	.
.	.	[2A/	-pri-	.	.	.	.
=67	=67	=67	=67	=67	=67	=67	=67
1D	-pri-	2A/]	.	1a	-o,	1dd	-pri-
.	.	1f	-o,	.	.	.	.
1d	-o,	.	.	1r	.	1dd	-o,
.	.	[2d\	mo-	.	.	.	.
=68	=68	=68	=68	=68	=68	=68	=68
1G	mo-	2d\]	.	1b	mo-	1r	.
.	.	1e	-tu	.	.	.	.
1A	-tu	.	.	1cc	-tu	1ee	mo-
.	.	[2c\	fer-	.	.	.	.
=69	=69	=69	=69	=69	=69	=69	=69
1F	fer-	2c\]	.	1a	fer-	1ff	-tu
.	.	1d	-tur	.	.	.	.
1G	-tur	.	.	1b	-tur	1dd	fer-
.	.	[2B\	pro-	.	.	.	.
=70	=70	=70	=70	=70	=70	=70	=70
1E	pro-	2B\]	.	1g	pro-	1ee	-tur
.	.	2.c\	.	.	.	.	.
2.F\	.	.	.	1a	.	2.cc\	pro-
.	.	4A/	.	.	.	.	.
.	.	[2f\	.	.	.	.	.
4G\	.	.	.	.	.	4bni\	.
=71	=71	=71	=71	=71	=71	=71	=71
2A\	.	4f\]	.	0a	-pri-	2cc\	.
.	.	4e\	.	.	.	.	.
2D\	.	4f\	.	.	.	1dd	.
.	.	4d\	.	.	.	.	.
1A	-pri-	1e	-pri-	.	.	.	.
.	.	.	.	.	.	2cc#i\	-pri-
=72	=72	=72	=72	=72	=72	=72	=72
*	*	*	*	*M2/1	*	*	*
*	*	*	*	*met(3)	*	*	*
[0D	-o.	0d	-o.	3%4.f	-o.	1dd	-o.
.	.	.	.	.	.	1r	.
=73	=73	=73	=73	=73	=73	=73	=73
0D]	.	0r	.	3%2r	.	3%4aV\	Gau-
.	.	.	.	3%4d	Gau-	.	.
.	.	.	.	.	.	3%2bniZ\	-de,
=74	=74	=74	=74	=74	=74	=74	=74
0r	.	0r	.	3%2e	-de,	3%2gV\	que
.	.	.	.	3%2c	que	3%4aZ\	post
.	.	.	.	[3%2d	post	.	.
=75	=75	=75	=75	=75	=75	=75	=75
0r	.	0r	.	3%2d]	.	3%2bniV	ip-
.	.	.	.	3%2e	ip-	3%2cc	-sum
.	.	.	.	3%2f	-sum	[3%2ddZ	scan-
=76	=76	=76	=76	=76	=76	=76	=76
0r	.	0r	.	3%2.g	scan-	3%2dd]V	.
.	.	.	.	.	.	3%2ee	-dis,
.	.	.	.	3f/	.	.	.
.	.	.	.	3%2a	-dis,	3%2rZ	.
=77	=77	=77	=77	=77	=77	=77	=77
0r	.	0r	.	3%2r	.	3%4aV\	Et
.	.	.	.	3%4d	Et	.	.
.	.	.	.	.	.	3%2bniZ\	est
=78	=78	=78	=78	=78	=78	=78	=78
0r	.	0r	.	3%2e	est	3%2gV\	ho-
.	.	.	.	3%2c	ho-	3%4aZ\	-nor
.	.	.	.	[3%2d	-nor	.	.
=79	=79	=79	=79	=79	=79	=79	=79
0r	.	0r	.	3%2d]	.	3%2bniV	ti-
.	.	.	.	3%2e	ti-	3%2cc	-bi
.	.	.	.	3%2f	-bi	[3%2ddZ	gran-
=80	=80	=80	=80	=80	=80	=80	=80
0r	.	0r	.	3%2.g	gran-	3%2dd]V	.
.	.	.	.	.	.	3%2ee	-dis,
.	.	.	.	3f/	.	.	.
.	.	.	.	3%2a	-dis,	3%2rZ	.
=81	=81	=81	=81	=81	=81	=81	=81
*M2/1	*	*M2/1	*	*	*	*	*
*met(3)	*	*met(3)	*	*	*	*	*
3%4A	In	3%4c	In	3%2r	.	3%4eeV	In
.	.	.	.	3%4a	In	.	.
3%2F	ce-	3%2d	ce-	.	.	3%2ffZ	ce-
=82	=82	=82	=82	=82	=82	=82	=82
3%2G	-li	3%2B	-li	3%2b	ce-	3%2ddV	-li
3%2E	pa-	3%4c	pa-	3%2g	-li	3%2.ee	pa-
3%2F	-la-	.	.	3%2a	pa-	.	.
.	.	.	.	.	.	3dd\Z	.
=83	=83	=83	=83	=83	=83	=83	=83
3%2D	.	3%2d	-la-	3%2a	-la-	3%4ddV	-la-
3%4A	-ti-	3%4e	-ti-	3%4a	-ti-	.	.
.	.	.	.	.	.	3%2cc#iZ	-ti-
=84	=84	=84	=84	=84	=84	=84	=84
*M2/1	*	*M2/1	*	*M2/1	*	*M2/1	*
*met(C|)	*	*met(C|)	*	*met(C|)	*	*met(C|)	*
0D	-o.	1d	-o.	1f	-o.	1.dd	-o.
.	.	1r	.	1r	.	.	.
.	.	.	.	.	.	2cc\	.
=85	=85	=85	=85	=85	=85	=85	=85
1r	.	1d	U-	1f	U-	1a	.
1A	U-	2c\	-bi	1e	-bi	1cc	U-
.	.	[2e\	fruc-	.	.	.	.
=86	=86	=86	=86	=86	=86	=86	=86
2E\	-bi	2e\]	.	1g	fruc-	1bni	-bi
1G	fruc-	1B	-tus	.	.	.	.
.	.	.	.	1d	-tus	1dd	.
[2D\	-tus	[2d\	ven-	.	.	.	fruc-
=87	=87	=87	=87	=87	=87	=87	=87
2D\]	.	2d\]	.	1f	ven-	1a	-tus
2D\	ven-	2.A/	-tris	.	.	.	.
1A	-tris	.	.	2.e/	-tris	1cc	ven-
.	.	4B\	.	.	.	.	.
.	.	2c\	.	.	.	.	.
.	.	.	.	4f/	.	.	.
=88	=88	=88	=88	=88	=88	=88	=88
2.G\	tu-	2d\	tu-	1g	tu-	2.bni\	-tris
.	.	2e\	.	.	.	.	.
4F\	.	.	.	.	.	4cc\	.
1D	.	1f	.	1a	-i	1dd	tu-
=89	=89	=89	=89	=89	=89	=89	=89
1A	-i	2e\	-i	1r	.	1ee	-i
.	.	2c\	No	.	.	.	.
2r	.	2.d\	.	1f	No	1r	.
2D\	No	.	.	.	.	.	.
.	.	4c\	.	.	.	.	.
=90	=90	=90	=90	=90	=90	=90	=90
2.A\	-bis	2A/	-bis	1e	-bis	1cc	No
.	.	1e	de-	.	.	.	.
4G\	.	.	.	.	.	.	.
2E\	.	.	.	1g	de-	1bni	-bis
[2G\	de-	[2B\	-tur	.	.	.	.
=91	=91	=91	=91	=91	=91	=91	=91
2G\]	.	2B\]	.	1d	-tur	1dd	de-
1D	-tur	1d	per	.	.	.	.
.	.	.	.	1f	per	1a	-tur
2D\	per	[2A/	te	.	.	.	.
=92	=92	=92	=92	=92	=92	=92	=92
1A	te	4A/]	.	2.e/	te	1cc	per
.	.	4B\	.	.	.	.	.
.	.	2c\	.	.	.	.	.
.	.	.	.	4f/	.	.	.
2.G\	fru-	2d\	fru-	1g	fru-	2.bni\	te
.	.	2e\	.	.	.	.	.
4F\	.	.	.	.	.	4cc\	.
=93	=93	=93	=93	=93	=93	=93	=93
1D	.	1f	.	0a	-i	1dd	fru-
1A	-i	1e	-i	.	.	1ee	-i
=94	=94	=94	=94	=94	=94	=94	=94
*M2/1	*	*M2/1	*	*M2/1	*	*	*
*met(3)	*	*met(3)	*	*met(3)	*	*	*
3%4A	In	3%4c	In	3%2r	.	3%4eeV	In
.	.	.	.	3%4a	In	.	.
3%2F	per	3%2d	per	.	.	3%2ffZ	per
=95	=95	=95	=95	=95	=95	=95	=95
3%2G	en-	3%2B	en-	3%2b	per	3%2ddV	en-
3%2E	-ni	3%4c	-ni	3%2g	en-	3%2.ee	-ni
3%2F	gau-	.	.	3%2a	-ni	.	.
.	.	.	.	.	.	3dd\Z	.
=96	=96	=96	=96	=96	=96	=96	=96
3%2D	.	3%2d	gau-	3%2a	gau-	3%4ddV	gau-
3%4A	-di-	3%4e	-di-	3%4a	-di-	.	.
.	.	.	.	.	.	3%2cc#iZ	-di-
=97	=97	=97	=97	=97	=97	=97	=97
*M2/1	*	*M2/1	*	*M2/1	*	*	*
*met(C|)	*	*met(C|)	*	*met(C|)	*	*	*
[0D	-o.	[0d	-o.	1f	-o.	0dd	-o.
.	.	.	.	2r	.	.	.
.	.	.	.	2d/	Al-	.	.
=98	=98	=98	=98	=98	=98	=98	=98
0D]	.	1d]	.	2.f/	-le-	2r	.
.	.	.	.	.	.	2d/	Al-
.	.	.	.	4g/	.	.	.
.	.	2r	.	2a/	.	2.f/	-le-
.	.	2d\	Al-	2b-i\	-lu-	.	.
.	.	.	.	.	.	4g/	.
=99	=99	=99	=99	=99	=99	=99	=99
1r	.	2.f\	-le-	2a/	-ja,	2a/	.
.	.	.	.	2d/	al-	2b-\	-lu-
.	.	4g\	.	.	.	.	.
2r	.	2a\	-lu-	2.f/	-le-	1a	-ja,
2D\	Al-	2d\	-ja,	.	.	.	.
.	.	.	.	4g/	.	.	.
=100	=100	=100	=100	=100	=100	=100	=100
2.F\	-le-	2r	.	4a/	.	1r	.
.	.	.	.	4b-i\	.	.	.
.	.	1f	al-	1a	.	.	.
4G\	.	.	.	.	.	.	.
2A\	.	.	.	.	.	2r	.
2B-i\	-lu-	4e\	-le-	2g/	-lu-	2d/	al-
.	.	4d\	.	.	.	.	.
=101	=101	=101	=101	=101	=101	=101	=101
2A\	-ja,	2c\	-lu-	0a	-ja,	2.f/	-le-
2D\	al-	2d\	.	.	.	.	.
.	.	.	.	.	.	4g/	.
2.F\	-le-	2A/	-ja,	.	.	4a/	.
.	.	.	.	.	.	4b-\	.
.	.	[2f\	al-	.	.	[2a/	.
4G\	.	.	.	.	.	.	.
=102	=102	=102	=102	=102	=102	=102	=102
2A\	.	2f\]	.	2r	.	2a/]	.
2B-i\	-lu-	4e\	-le-	2d/	al-	2g/	-lu-
.	.	4d\	.	.	.	.	.
2A\	-ja,	2c\	-lu-	2.f/	-le-	2a/	-ja,
2D\	al-	2d\	.	.	.	2ff\	al-
.	.	.	.	4g/	.	.	.
=103	=103	=103	=103	=103	=103	=103	=103
2.F\	-le-	2.A/	-ja,	4a/	.	2ff\	-le-
.	.	.	.	4b-i\	.	.	.
.	.	.	.	1a	.	1ff	-lu-
4G\	.	4B\	.	.	.	.	.
2A\	.	2c\	.	.	.	.	.
2B-i\	-lu-	2d\	al-	2g/	.	4ee\	.
.	.	.	.	.	.	4dd\	.
=104	=104	=104	=104	=104	=104	=104	=104
[0A;l	.	2e\	-le-	1a	.	[0cc;l	.
.	.	1f	-lu-	.	.	.	.
!	!	!	!	!LO:N:vis=1	!	!	!
.	.	.	.	[y1a;	-lu-	.	.
.	.	4e\	.	.	.	.	.
.	.	4d\	.	.	.	.	.
=105	=105	=105	=105	=105-	=105	=105	=105
0A]	.	0e;l	.	0a]yy	.	0cc]	.
=106	=106	=106	=106	=106	=106	=106	=106
0Dl	-ja.	0dl	-ja.	0al	-ja.	0ddl	-ja.
==	==	==	==	==	==	==	==
*-	*-	*-	*-	*-	*-	*-	*-
!!!RDF**kern: %=rational rhythm
!!!rscale-alt: 1/2
!!!RDF**kern: V=start of tuplet marker
!!!RDF**kern: Z=end of tuplet marker
!!!RDF**kern: l=long note in original notation
!!!RDF**kern: i=editorial accidental
!!!ENC: Jesse Rodin; Victoria Chang 2011/05/16
!!!END: 2011/05/16/
!!!EED: Jesse Rodin
!!!EEV: 2011/09/01/
!!attribution-level@Jos: 1 (secure, core group [checkmark])
!!!ONB: Translated from MusicXML and edited on 2011/08/15/ by Craig Sapp
!!muse2ps: C^@{COM}\n@{SCT}^i2I150v90,90,90,120c145z18l2700t130
